public/svg/Vector.svg

<svg width="60" height="28" viewBox="0 0 60 28" fill="none" xmlns="http://www.w3.org/2000/svg">
<path id="Vector" d="M8.14152 5.79836C8.74533 5.51736 9.26661 4.95945 9.99299 5.03289C10.3938 4.70575 10.9001 4.41947 11.4343 4.46151C11.9367 3.77465 12.7249 3.14329 13.64 3.26245C13.9887 3.02428 14.4073 2.9327 14.8235 2.91684C15.5248 2.20355 16.7923 1.79129 17.6542 2.45277C17.804 2.39978 17.9585 2.36776 18.117 2.35735C18.2563 2.34758 18.3949 2.35695 18.5319 2.38602C19.1373 2.13591 19.8913 1.97372 20.4646 2.38432C21.2131 2.07038 22.2258 2.06477 22.7915 2.72308C23.7697 2.36045 25.1033 2.59951 25.5579 3.63246C25.929 3.4627 26.3191 3.33223 26.7308 3.32366C26.8906 3.37023 26.9977 3.29967 27.0522 3.11061C27.4401 2.68616 27.9727 2.38664 28.5452 2.30518C28.7281 2.28179 28.9165 2.28933 29.0916 2.21342C29.6265 1.47108 30.5765 0.998243 31.4957 1.12004C32.1506 0.640705 33.1462 0.41004 33.8689 0.873376C34.2772 0.719207 34.7356 0.671793 35.151 0.824631C35.1868 0.865053 35.2214 0.868435 35.254 0.834034C35.7191 0.583671 36.2982 0.478851 36.804 0.664006C36.9293 0.679469 37.1096 0.581907 37.2067 0.556809C37.8467 0.386961 38.6677 0.491598 39.0664 1.07375C39.3999 1.00382 39.7368 1.07653 40.0379 1.21826C40.2387 1.23187 40.4336 1.30547 40.6032 1.41217C41.4774 1.06642 42.13 1.33192 42.7749 1.93773C43.1893 2.04692 43.6952 2.02803 44.0719 2.23614C44.3575 2.19955 44.6556 2.24269 44.9157 2.36717C45.4886 2.29719 46.1817 2.50467 46.4481 3.05476C46.7162 3.08019 46.9575 3.11411 47.23 3.05948C47.6803 3.05041 48.1687 3.18527 48.4782 3.52885C48.5202 3.63658 48.6006 3.67196 48.7193 3.635C49.1728 3.70935 49.6347 3.85966 49.95 4.20893C49.9869 4.33827 50.0667 4.39922 50.1894 4.39313C50.6032 4.49984 51.0166 4.76759 51.1973 5.16428C51.6154 5.35344 51.9473 5.77879 51.945 6.24776C52.0876 6.38274 52.2215 6.53085 52.2813 6.72081C52.2727 6.80331 52.3074 6.85144 52.3852 6.8653C52.4881 6.93011 52.5708 6.93589 52.6904 6.9878C52.9191 7.08303 53.0883 7.25828 53.2272 7.45798C53.4576 7.57251 53.6584 7.76829 53.7358 8.01698C53.7995 8.22087 53.7564 8.09957 53.8917 8.26851C53.9171 8.30747 53.9419 8.34562 53.9674 8.38314C54.4016 8.41316 54.8637 8.60753 55.0702 9.01107C55.4735 9.24002 55.7778 9.68893 55.6534 10.1641C55.693 10.1949 55.7325 10.2257 55.7714 10.2557C55.8246 10.3025 55.868 10.3563 55.9015 10.4186C56.6896 10.4166 57.5564 11.0737 57.3693 11.9275C57.79 12.0934 58.0872 12.532 58.0386 12.9871C58.0127 13.0462 58.0429 13.0691 58.1284 13.0566C58.4597 13.1634 58.7643 13.4222 58.8555 13.7662C58.906 13.9577 58.8578 13.8828 58.98 14.038C59.6796 14.7856 58.695 15.7506 57.873 15.7105C57.5334 15.7188 57.2568 15.6128 56.9959 15.4035C56.8855 15.316 56.8525 15.3205 56.6984 15.2638C56.2815 15.1325 55.9081 14.7447 55.9433 14.2842C55.5052 14.2147 55.0526 13.9243 54.9364 13.4727C54.8881 13.2806 54.9097 13.386 54.6495 13.2976C53.9185 13.0949 53.4604 12.2693 53.8101 11.5647C53.8398 11.5393 53.8386 11.5179 53.8067 11.4991C53.7767 11.3916 53.7047 11.3398 53.5898 11.3458C53.278 11.2877 52.972 11.1376 52.7769 10.881C52.6962 10.7761 52.6918 10.6876 52.5874 10.6227C52.2818 10.4348 52.093 10.071 52.1233 9.71185C51.9166 9.47248 51.5433 9.51579 51.3234 9.27949C51.1088 9.00441 50.7502 8.95525 50.5881 8.62969C50.524 8.51316 50.5203 8.45041 50.3972 8.38963C50.149 8.35622 49.9252 8.25207 49.7164 8.11639C49.2371 8.11574 48.7376 7.95404 48.4156 7.58534C47.9942 7.47329 47.5688 7.21092 47.3957 6.79409C46.982 6.69459 46.6599 6.40094 46.4445 6.04293C46.0133 5.99656 45.5806 5.79587 45.3448 5.41887C45.1623 5.35538 45.0395 5.16422 44.8295 5.28357C44.5835 5.31342 44.3455 5.32192 44.1024 5.26892C43.8159 5.2121 43.5514 5.07284 43.346 4.86408C43.3087 4.79435 43.2465 4.76327 43.1579 4.76913C42.9814 4.70921 42.806 4.60747 42.6783 4.46753C42.6317 4.37289 42.5535 4.32778 42.4416 4.33256C42.2793 4.28354 42.1364 4.18734 42.0136 4.07131C41.6347 3.85901 41.2852 4.10327 40.8952 4.14335C40.4358 4.18401 39.9134 4.06558 39.6124 3.69188C39.4269 3.73512 39.236 3.73132 39.0475 3.70972C38.721 3.65376 38.3591 3.74287 38.0595 3.54123C37.4087 3.87136 36.5368 3.9393 35.9397 3.46303C35.5716 3.54332 35.1622 3.51445 34.8279 3.33321C34.5005 3.50471 34.1173 3.59508 33.7487 3.55265C33.2574 4.00519 32.5647 4.29049 31.8921 4.22747C31.3306 4.68569 30.5537 4.95131 29.8336 4.78642C29.5306 5.17621 29.1036 5.48237 28.6319 5.62873C28.6713 5.67933 28.7101 5.72927 28.7496 5.77853C28.8011 5.86491 28.8448 5.95291 28.8816 6.04531C29.6506 5.9109 30.5867 6.29852 30.7753 7.11202C31.1245 7.22182 31.3756 7.49468 31.5649 7.7852C32.0271 8.04105 32.3576 8.50321 32.3402 9.04414C32.2585 9.19053 32.2767 9.29497 32.3955 9.35686C32.5814 9.46985 32.7505 9.62717 32.8302 9.8326C33.0421 9.86502 33.2513 9.94313 33.4242 10.0706C34.813 10.0359 35.8906 11.3867 35.3289 12.7127C35.1529 12.9107 35.1889 12.9974 35.4366 12.9727C36.615 13.2301 37.1639 14.3978 36.8658 15.5166C36.8163 15.733 36.7393 15.9373 36.6332 16.1323C36.6224 16.226 36.626 16.2795 36.6963 16.3354C37.3642 16.8938 37.3009 17.9566 36.9251 18.6645C36.8265 18.8452 36.707 19.0107 36.5668 19.1596C36.361 19.3382 36.4336 19.6232 36.2993 19.8394C36.3683 20.1895 36.2533 20.5615 36.0613 20.854C36.3779 22.1885 35.0127 22.9066 34.2642 23.7339C34.057 23.9139 33.8316 24.0882 33.5875 24.2127C33.3402 24.3399 33.3409 24.2668 33.2186 24.4427C33.0802 24.6415 32.8838 24.8281 32.6792 24.9557C32.532 25.0487 32.5533 25.1135 32.4236 25.2917C32.3152 25.4425 32.1791 25.5932 32.0514 25.7289C31.6173 26.1873 31.0309 26.5148 30.407 26.6178C29.7549 27.0409 28.9015 27.2356 28.158 26.9494C27.8879 27.0772 27.5806 27.1509 27.2819 27.1399C26.83 27.4455 26.2852 27.5835 25.7436 27.5425C25.5036 27.5316 25.6362 27.5263 25.3415 27.6149C24.3755 27.9327 22.9693 27.6314 22.7047 26.5117C21.5009 26.7268 20.1338 25.9155 20.1423 24.605C20.1323 24.1125 20.2753 24.3568 20.0136 24.0863C19.6367 23.701 19.5314 23.0958 19.6896 22.5875C19.7388 22.5031 19.7172 22.4241 19.6257 22.3494C19.5684 22.1906 19.5329 22.0252 19.4976 21.8591C19.5267 21.6774 19.4382 21.5895 19.2319 21.5948C18.3029 21.2003 18.1591 20.0112 18.642 19.212C18.9107 19.0689 18.5868 18.8278 18.6462 18.6006C18.6247 18.5833 18.6034 18.566 18.582 18.5486C18.4841 18.4558 18.4072 18.3475 18.35 18.2251C16.6815 17.5879 17.0709 15.3912 18.2426 14.4446C18.3754 14.381 18.4429 14.2719 18.4435 14.1184C18.4382 13.7417 18.4876 13.3504 18.7025 13.0266C18.159 12.0061 18.8354 10.7801 19.6965 10.168C19.8685 10.1487 19.9278 10.0901 19.8742 9.99216C19.633 8.87544 20.2482 7.72159 21.1505 7.07666C21.3575 6.9997 21.3198 6.90942 21.0359 6.80422L20.8269 6.55986C20.7943 6.33067 20.6806 6.25643 20.4875 6.33736C19.8942 6.37044 19.2304 6.12267 18.925 5.58986C18.5106 5.64266 18.0537 5.55155 17.7348 5.26988C17.5425 5.3088 17.3322 5.20892 17.221 5.42744C16.6 5.93718 15.6655 6.2187 14.9068 5.86633C14.6426 6.02459 14.3423 6.13432 14.0339 6.15438C13.5101 6.61653 12.7486 6.88581 12.0637 6.66403C11.7449 7.01666 11.3386 7.27138 10.8825 7.40834C10.5751 7.9353 10.0355 8.16862 9.53187 8.43097C9.2348 8.65665 8.88248 8.82185 8.50939 8.86015C8.37034 9.07254 8.19445 9.26865 7.98412 9.41119C7.76942 9.84003 7.40579 10.1839 6.97695 10.393C6.84935 10.4164 6.74393 10.475 6.66059 10.5687C6.59982 10.5917 6.58359 10.6359 6.61194 10.7013C6.58195 11.4035 6.13614 12.0651 5.54993 12.4341C5.43307 12.4655 5.37084 12.5438 5.36395 12.6683C5.21493 13.0626 4.9697 13.1852 4.77926 13.4442C4.59504 13.8421 4.28064 14.181 3.88994 14.3819C3.79487 14.6113 3.68325 14.8273 3.57501 15.0509C3.45312 15.2407 3.27972 15.3844 3.27724 15.6273C3.25766 16.0401 2.99426 16.3733 2.85411 16.7462C2.84276 17.1828 2.55036 17.5141 2.33552 17.869C2.19894 18.09 2.07298 18.2848 1.84805 18.4271C1.18396 18.8707 0.586098 18.4263 0.445043 17.7198C0.416326 17.4582 0.509676 17.2544 0.602523 17.0194C0.627879 16.7854 0.793455 16.5974 0.90037 16.4059C1.02555 16.1582 1.00481 15.8753 1.1231 15.6246C1.25545 15.3902 1.38797 15.1469 1.55152 14.9311C1.59669 14.4751 1.85706 14.073 2.1123 13.705C1.96265 13.0618 2.4775 12.5971 2.65049 12.0288C2.74791 11.8051 2.89667 11.6105 3.06158 11.4306C3.19468 11.3812 3.25749 11.2959 3.25126 11.1746C3.38437 10.3882 4.01122 9.71865 4.75163 9.45176C4.90049 9.45627 4.98778 9.38416 5.01436 9.23488C5.05858 9.19567 5.07811 9.14607 5.07347 9.08669C5.17816 8.49009 5.59721 7.98936 6.10445 7.67985C6.35611 7.28929 6.74534 6.99123 7.18496 6.8423C7.4202 6.42213 7.72307 6.04939 8.14152 5.79836ZM33.021 19.4473C32.7174 18.9958 32.534 18.4317 32.6577 17.8871C32.8171 17.6651 32.7582 17.5362 32.4819 17.4997C31.5453 16.9207 31.1209 15.747 31.6829 14.7553C30.4273 14.6225 29.6365 13.2255 30.1895 12.0856C30.1809 12.0494 30.1738 12.0133 30.166 11.9764C30.2118 11.8542 30.1907 11.7588 30.1036 11.6909C29.9522 11.5528 29.818 11.3869 29.7724 11.1821C29.1774 11.1654 28.6367 10.8244 28.3991 10.2752C28.2723 10.207 28.1612 10.1188 28.0666 10.0099C28.0198 9.94581 27.9728 9.88178 27.9253 9.81697C27.2983 9.72022 26.706 9.28838 26.5999 8.63317C26.1658 8.63725 25.753 8.48857 25.4403 8.18556C25.3579 7.9937 25.2888 8.00536 25.2324 8.21841C25.1412 8.40235 24.8859 8.50324 24.902 8.72137C24.7217 9.67285 23.9514 10.4109 23.1343 10.8575C23.2607 11.7364 22.8356 12.6183 22.1529 13.1621C22.1548 13.4749 22.0423 13.7893 21.8803 14.0533C22.6112 14.6694 22.5902 15.7901 22.1547 16.5728C22.0029 16.9126 21.6678 17.1144 21.5937 17.4826C21.642 17.593 21.6699 17.7088 21.6768 17.8295C22.7591 18.1397 23.0496 19.4887 22.447 20.3598C22.5035 20.4474 22.5606 20.5342 22.6186 20.6205C22.6365 20.6553 22.6544 20.69 22.673 20.7242C23.112 20.8006 23.559 21.0575 23.7576 21.4693C24.8485 21.4654 25.9017 22.375 25.798 23.5102C26.3245 23.559 26.877 23.7918 27.17 24.2493C27.2775 24.2645 27.3807 24.2977 27.4757 24.3477C27.737 24.3588 27.8107 24.1613 27.9903 24.0076C28.2376 23.7973 28.5369 23.6124 28.8443 23.5049C29.0583 23.4313 28.9852 23.4214 29.2544 23.2398C29.7131 22.9264 30.2438 22.7946 30.7839 22.7037C30.9316 22.7315 31.0614 22.6983 31.1718 22.6038C31.3441 22.517 31.2966 22.5524 31.3962 22.3946C31.5475 22.1289 31.7666 21.92 31.7716 21.5975C31.9162 21.0176 32.3073 20.4931 32.8152 20.1745C32.9966 20.1114 32.9893 19.8728 33.1154 19.7396C33.2498 19.6454 33.2331 19.5387 33.021 19.4473Z" fill="#0CBC7C"/>
</svg>

<svg xmlns="http://www.w3.org/2000/svg" width="60" height="28" fill="none"><path fill="#0CBC7C" d="M8.142 5.798c.603-.28 1.125-.839 1.851-.765.4-.327.907-.614 1.441-.571.503-.687 1.29-1.319 2.206-1.2.349-.238.767-.33 1.183-.345.702-.713 1.97-1.126 2.831-.464a1.7 1.7 0 0 1 .463-.096q.21-.015.415.029c.605-.25 1.36-.412 1.933-.002.748-.314 1.76-.32 2.326.34.979-.364 2.312-.124 2.767.908.371-.17.761-.3 1.173-.308q.24.07.321-.213c.388-.425.92-.724 1.493-.806.183-.023.371-.016.547-.092.535-.742 1.485-1.215 2.404-1.093.655-.48 1.65-.71 2.373-.247.408-.154.867-.201 1.282-.048q.054.06.103.009c.465-.25 1.044-.355 1.55-.17.125.015.306-.082.403-.107.64-.17 1.46-.065 1.86.517.333-.07.67.003.97.144.202.014.397.087.566.194.874-.346 1.527-.08 2.172.526.414.109.92.09 1.297.298.285-.036.584.007.844.131.573-.07 1.266.138 1.532.688.268.025.51.06.782.004.45-.009.939.126 1.248.47q.064.162.241.106c.454.074.916.225 1.231.574q.055.194.24.184c.413.107.827.375 1.007.771.418.19.75.615.748 1.084.143.135.276.283.336.473q-.013.123.104.144c.103.065.186.07.305.123.23.095.398.27.537.47.23.115.431.31.509.559.064.204.02.083.156.252l.075.114c.435.03.897.225 1.103.628.404.229.708.678.583 1.153l.118.092q.08.069.13.163c.789-.002 1.655.655 1.468 1.508.421.166.718.605.67 1.06q-.039.089.09.07c.33.106.635.365.727.71.05.19.002.116.124.271.7.748-.285 1.713-1.107 1.672a1.3 1.3 0 0 1-.877-.307c-.11-.087-.144-.083-.298-.14-.416-.13-.79-.518-.755-.979-.438-.07-.89-.36-1.007-.811-.048-.192-.026-.087-.286-.175-.731-.203-1.19-1.029-.84-1.733q.045-.038-.003-.066-.045-.162-.217-.153c-.312-.058-.618-.208-.813-.465-.08-.105-.085-.193-.19-.258a1 1 0 0 1-.464-.911c-.206-.24-.58-.196-.8-.433-.214-.275-.573-.324-.735-.65-.064-.116-.068-.179-.19-.24a1.66 1.66 0 0 1-.682-.273c-.479 0-.978-.162-1.3-.53-.422-.113-.847-.375-1.02-.792-.414-.1-.736-.393-.952-.751-.43-.046-.863-.247-1.1-.624-.182-.064-.305-.255-.514-.135-.246.03-.484.038-.728-.015a1.46 1.46 0 0 1-.756-.405q-.056-.104-.188-.095a1.16 1.16 0 0 1-.48-.301q-.069-.143-.236-.135a1.1 1.1 0 0 1-.428-.262c-.38-.212-.729.032-1.119.072-.46.041-.982-.077-1.283-.451-.185.043-.376.04-.565.018-.326-.056-.688.033-.987-.169-.651.33-1.523.398-2.12-.078-.368.08-.778.051-1.112-.13-.328.172-.71.262-1.08.22-.49.452-1.183.737-1.856.674-.561.459-1.338.724-2.058.56a2.5 2.5 0 0 1-1.202.842l.118.15q.076.129.132.266c.769-.134 1.705.254 1.893 1.067.35.11.6.383.79.673.462.256.793.718.775 1.26q-.122.219.055.312c.186.113.355.27.435.476.212.032.421.11.594.238 1.389-.035 2.467 1.316 1.905 2.642q-.264.297.108.26c1.178.257 1.727 1.425 1.429 2.544q-.075.323-.233.615c-.01.094-.007.147.063.203.668.559.605 1.622.23 2.33q-.15.27-.36.495c-.205.178-.132.463-.267.68.07.35-.046.721-.238 1.014.317 1.335-1.048 2.053-1.797 2.88a3.5 3.5 0 0 1-.677.479c-.247.127-.246.054-.368.23a1.9 1.9 0 0 1-.54.513c-.147.093-.126.157-.255.336-.109.15-.245.301-.373.437a2.97 2.97 0 0 1-1.644.889c-.652.423-1.506.618-2.249.331-.27.128-.577.202-.876.19a2.42 2.42 0 0 1-1.538.404c-.24-.011-.108-.017-.402.072-.966.318-2.373.016-2.637-1.103-1.204.215-2.571-.596-2.563-1.907-.01-.492.133-.248-.128-.519-.377-.385-.483-.99-.324-1.498q.073-.127-.064-.239a4 4 0 0 1-.128-.49q.043-.273-.266-.264c-.93-.395-1.073-1.584-.59-2.383.269-.143-.055-.384.004-.611l-.064-.052a1.1 1.1 0 0 1-.232-.324c-1.669-.637-1.28-2.834-.107-3.78a.34.34 0 0 0 .2-.327c-.005-.376.045-.768.26-1.091-.544-1.02.132-2.247.994-2.859q.257-.03.177-.176c-.241-1.117.374-2.27 1.277-2.915q.31-.115-.115-.273l-.21-.244q-.048-.345-.338-.223c-.594.033-1.258-.214-1.563-.747-.414.053-.871-.038-1.19-.32-.192.039-.403-.061-.514.157-.621.51-1.556.792-2.314.44a2 2 0 0 1-.873.287c-.524.463-1.285.732-1.97.51a2.6 2.6 0 0 1-1.181.744c-.308.527-.847.76-1.351 1.023-.297.226-.65.39-1.023.43a2 2 0 0 1-.525.55 2.2 2.2 0 0 1-1.007.982.54.54 0 0 0-.316.176q-.091.035-.05.132c-.029.702-.475 1.364-1.061 1.733q-.176.048-.186.234c-.15.395-.394.517-.585.776a2 2 0 0 1-.89.938c-.094.23-.206.445-.314.669-.122.19-.295.333-.298.576-.02.413-.283.746-.423 1.12-.011.436-.304.767-.518 1.122-.137.221-.263.416-.488.558-.664.444-1.262 0-1.403-.707-.029-.262.065-.466.158-.7.025-.235.19-.423.297-.614.126-.248.105-.53.223-.781.132-.235.265-.478.429-.694.045-.456.305-.858.56-1.226-.15-.643.365-1.108.538-1.676.098-.224.247-.418.412-.598q.199-.075.19-.256c.132-.787.76-1.456 1.5-1.723q.223.006.262-.217a.17.17 0 0 0 .06-.148c.104-.597.523-1.098 1.03-1.407.252-.39.641-.689 1.081-.838.235-.42.538-.793.957-1.044m24.879 13.65c-.304-.452-.487-1.016-.363-1.56q.239-.334-.176-.388c-.937-.58-1.361-1.753-.8-2.745-1.255-.133-2.045-1.53-1.492-2.67q-.013-.054-.024-.109.069-.183-.062-.285c-.152-.138-.286-.304-.332-.509a1.53 1.53 0 0 1-1.373-.907 1.2 1.2 0 0 1-.332-.265l-.142-.193c-.627-.097-1.219-.529-1.325-1.184a1.62 1.62 0 0 1-1.16-.447q-.123-.287-.208.032c-.09.184-.346.285-.33.503-.18.952-.95 1.69-1.768 2.137.127.878-.298 1.76-.981 2.304.002.313-.11.627-.273.891.731.616.71 1.737.275 2.52-.152.34-.487.541-.561.91q.072.165.083.346c1.082.31 1.373 1.66.77 2.53q.084.132.172.261.026.053.054.104c.439.077.886.334 1.085.745 1.09-.004 2.144.906 2.04 2.041.527.049 1.079.282 1.372.74q.161.023.306.098c.261.01.335-.187.514-.34.248-.21.547-.396.854-.503.214-.074.141-.084.41-.265.46-.314.99-.445 1.53-.536a.44.44 0 0 0 .388-.1c.172-.087.125-.052.224-.21.151-.265.37-.474.376-.796a2.4 2.4 0 0 1 1.043-1.424c.182-.063.174-.301.3-.434.135-.095.118-.201-.094-.293"/></svg>
